assets/icons/utility/reassign.svg

<?xml version="1.0"?><svg xmlns="http://www.w3.org/2000/svg" width="52" height="52" viewBox="0 0 52 52"><path fill="#fff" d="m23.2 10.2c-5.1-5.1-13.2-6.7-20.3-4.5-0.3 0-0.7 0.5-0.7 1.3v3.9c0 0.8 0.7 1 1.1 0.9 5.4-2.2 12-1.2 16.3 3.3l1.1 1.1c0.6 0.6 0.1 1.7-0.7 1.7h-7.8c-0.8 0-1.5 0.6-1.5 1.5v3c0 0.8 0.6 1.5 1.5 1.5l19.2 0.2c0.8 0 1.5-0.6 1.5-1.5l0.1-19.1c0-0.8-0.6-1.5-1.5-1.5h-3c-0.8 0-1.6 0.6-1.6 1.4l-0.1 7.9c0 0.8-1.1 1.3-1.7 0.7 0.1 0.1-1.9-1.8-1.9-1.8z m-19.7 17.6h3c0.8 0 1.5 0.7 1.5 1.5v13.2c0 0.8 0.7 1.5 1.5 1.5h33c0.8 0 1.5-0.7 1.5-1.5v-25.6c0-0.8-0.7-1.5-1.5-1.5h-4c-0.8 0-1.5-0.7-1.5-1.5v-3c0-0.8 0.7-1.5 1.5-1.5h7.5c2.2 0 4 1.8 4 4v32.6c0 2.2-1.8 4-4 4h-40c-2.2 0-4-1.8-4-4v-16.7c0-0.8 0.7-1.5 1.5-1.5z"></path></svg>

<svg xmlns="http://www.w3.org/2000/svg" x="0px" y="0px"
	 width="52px" height="52px" viewBox="0 0 52 52" enable-background="new 0 0 52 52" xml:space="preserve">
<path fill="#FFFFFF" d="M23.2,10.2C18.1,5.1,10,3.5,2.9,5.7C2.6,5.7,2.2,6.2,2.2,7s0,3,0,3.9c0,0.8,0.7,1,1.1,0.9
	c5.4-2.2,12-1.2,16.3,3.3l1.1,1.1c0.6,0.6,0.1,1.7-0.7,1.7h-7.8c-0.8,0-1.5,0.6-1.5,1.5v3c0,0.8,0.6,1.5,1.5,1.5l19.2,0.2
	c0.8,0,1.5-0.6,1.5-1.5L33,3.5C33,2.7,32.4,2,31.5,2h-3c-0.8,0-1.6,0.6-1.6,1.4l-0.1,7.9c0,0.8-1.1,1.3-1.7,0.7
	C25.2,12.1,23.2,10.2,23.2,10.2z"/>
<path fill="#FFFFFF" d="M3.5,27.8h3c0.8,0,1.5,0.7,1.5,1.5v13.2C8,43.3,8.7,44,9.5,44h33c0.8,0,1.5-0.7,1.5-1.5V16.9
	c0-0.8-0.7-1.5-1.5-1.5h-4c-0.8,0-1.5-0.7-1.5-1.5v-3c0-0.8,0.7-1.5,1.5-1.5H46c2.2,0,4,1.8,4,4V46c0,2.2-1.8,4-4,4H6
	c-2.2,0-4-1.8-4-4V29.3C2,28.5,2.7,27.8,3.5,27.8z"/>
</svg>
